src/icons/live-share.svg

<svg width="24" height="24" viewBox="0 0 24 24" fill="none" xmlns="http://www.w3.org/2000/svg">
<path fill-rule="evenodd" clip-rule="evenodd" d="M13.7347 1.69391L15.178 1L23.2066 7.32844V8.71626L15.178 14.788L13.7347 14.0941V11.3184H13.1449C9.08552 11.2976 6.43476 11.4225 2.535 16.4811L1.00149 15.9884C0.987025 15.2278 1.07811 14.4688 1.27212 13.7332C1.70217 11.0648 3.09731 8.64728 5.19264 6.9399C7.30552 5.21677 9.96859 4.31264 12.6938 4.39322H13.7347V1.69391ZM15.5388 9.61143V12.3871L21.215 8.10562L15.5666 3.56057V6.22515H12.7077C11.433 6.16274 10.1591 6.36336 8.96526 6.81462C7.77145 7.26588 6.68334 7.95813 5.76864 8.84815C4.66106 10.0185 3.83935 11.4292 3.36774 12.9699C6.71932 9.75713 9.5574 9.61143 13.1657 9.61143H15.5388ZM7.89194 15.5073C8.60058 15.0338 9.43371 14.781 10.286 14.781C11.4288 14.781 12.5249 15.235 13.333 16.0432C14.1411 16.8513 14.5951 17.9473 14.5951 19.0902C14.5951 19.9425 14.3424 20.7757 13.8689 21.4843C13.3954 22.1929 12.7224 22.7452 11.935 23.0713C11.1476 23.3975 10.2812 23.4828 9.44528 23.3166C8.60938 23.1503 7.8416 22.7399 7.23895 22.1373C6.6363 21.5346 6.22586 20.7668 6.05959 19.9309C5.89332 19.095 5.97866 18.2285 6.30481 17.4411C6.63097 16.6537 7.1833 15.9808 7.89194 15.5073ZM8.84725 21.2348C9.27304 21.5196 9.77377 21.6716 10.286 21.6716C10.9712 21.6716 11.6285 21.3998 12.1137 20.9159C12.5989 20.432 12.8724 19.7754 12.8742 19.0902C12.8756 18.578 12.725 18.0769 12.4414 17.6504C12.1578 17.2238 11.7541 16.891 11.2813 16.694C10.8084 16.4971 10.2878 16.4448 9.78528 16.5439C9.28275 16.643 8.82087 16.8889 8.4582 17.2506C8.09553 17.6123 7.84838 18.0735 7.74794 18.5758C7.64751 19.078 7.69837 19.5988 7.89406 20.0722C8.08976 20.5455 8.42146 20.9501 8.84725 21.2348Z" fill="white"/>
</svg>

<svg width="24" height="24" xmlns="http://www.w3.org/2000/svg"><path fill-rule="evenodd" clip-rule="evenodd" d="M13.735 1.694L15.178 1l8.029 6.328v1.388l-8.029 6.072-1.443-.694v-2.776h-.59c-4.06-.02-6.71.104-10.61 5.163l-1.534-.493a8.23 8.23 0 0 1 .271-2.255 11.026 11.026 0 0 1 3.92-6.793 11.339 11.339 0 0 1 7.502-2.547h1.04v-2.7zm1.804 7.917v2.776l5.676-4.281-5.648-4.545v2.664h-2.86A9.298 9.298 0 0 0 5.77 8.848a10.444 10.444 0 0 0-2.401 4.122c3.351-3.213 6.19-3.359 9.798-3.359h2.373zm-7.647 5.896a4.31 4.31 0 1 1 4.788 7.166 4.31 4.31 0 0 1-4.788-7.166zm.955 5.728a2.588 2.588 0 1 0 2.878-4.302 2.588 2.588 0 0 0-2.878 4.302z"/></svg>
